X: 20773
M: 6/8
L: 1/8
K: D
d2a a2g | g2f f2e | d2d ede | faf d2A |\
d2a a2g | g2f f2e | dfa gec | d2d d2 :|
|: A |\
dfa agf | ecA A2A | dfa agf | e3 zz2 |\
efg efg | fga fga | aba gfe | d3- d2 :|


